public/bb.svg

<svg height="600" viewBox="0 0 900 600" width="900" xmlns="http://www.w3.org/2000/svg"><path d="m0 0h900v600h-900z" fill="#0070f3"/><g fill="#002d8c"><path d="m0 486.7c-20.2-68.8-40.3-137.6-67.3-148.3s-60.8 36.6-96.5 57-73.4 13.8-91.8-12.9-17.5-73.5-23.7-103.2-19.6-42.3-62.4-51c-42.9-8.6-115.3-13.2-108-42 7.3-28.9 94.4-82 101.5-117 7.1-35.1-65.7-52.2-138.5-69.3h486.7z" transform="translate(900)"/><path d="m0-486.7c36.7-9.9 73.5-19.8 95 9.3 21.4 29.1 27.7 97.1 56.2 112.5 28.4 15.3 79.2-22 102.7-15.1 23.5 7 19.8 58.2 45.9 80.2s82.1 14.8 91.8 38.1-26.8 77.1-23.9 109.4 45.3 43.1 71.7 64.9 36.9 54.6 47.3 87.4h-486.7z" transform="translate(0 600)"/></g></svg>

<svg xmlns="http://www.w3.org/2000/svg" xmlns:xlink="http://www.w3.org/1999/xlink" id="visual" width="900" height="600" version="1.1" viewBox="0 0 900 600"><rect width="900" height="600" x="0" y="0" fill="#0070F3"/><defs><linearGradient id="grad1_0" x1="33.3%" x2="100%" y1="0%" y2="100%"><stop offset="20%" stop-color="#0070f3" stop-opacity="1"/><stop offset="80%" stop-color="#0070f3" stop-opacity="1"/></linearGradient></defs><defs><linearGradient id="grad2_0" x1="0%" x2="66.7%" y1="0%" y2="100%"><stop offset="20%" stop-color="#0070f3" stop-opacity="1"/><stop offset="80%" stop-color="#0070f3" stop-opacity="1"/></linearGradient></defs><g><path fill="#002D8C" d="M0 486.7C-20.2 417.9 -40.3 349.1 -67.3 338.4C-94.3 327.7 -128.1 375 -163.8 395.4C-199.5 415.8 -237.2 409.2 -255.6 382.5C-274 355.8 -273.1 309 -279.3 279.3C-285.5 249.6 -298.9 237 -341.7 228.3C-384.6 219.7 -457 215.1 -449.7 186.3C-442.4 157.4 -355.3 104.3 -348.2 69.3C-341.1 34.2 -413.9 17.1 -486.7 0L0 0Z" transform="translate(900, 0)"/></g><g><path fill="#002D8C" d="M0 -486.7C36.7 -496.6 73.5 -506.5 95 -477.4C116.4 -448.3 122.7 -380.3 151.2 -364.9C179.6 -349.6 230.4 -386.9 253.9 -380C277.4 -373 273.7 -321.8 299.8 -299.8C325.9 -277.8 381.9 -285 391.6 -261.7C401.3 -238.4 364.8 -184.6 367.7 -152.3C370.6 -120 413 -109.2 439.4 -87.4C465.8 -65.6 476.3 -32.8 486.7 0L0 0Z" transform="translate(0, 600)"/></g></svg>
